X: 14319
T: Gallagher's Frolics
R: jig
M: 6/8
K: Edorian
|:EB,E GFE|BEB dBA|~B3 ~B3|GFG AFD|
EB,E GFE|BEB dBA|BAG FAF|1 GEE E2D:|2 GEE E2B||
|:eBe gfe|~g3 bge|dcd fed|afd fed|
ede gfe|dfe dBA|~B3 AGF|1 GEE E2B:|2 GEE E2D||

